assets/images/icon-stack-overflow.svg

<svg height="17" width="14" xmlns="http://www.w3.org/2000/svg"><g fill="none"><path d="m11.76 15.3v-4.533h1.68v6.233h-13.44v-6.233h1.68v4.533z" fill="#bcbbbb"/><path d="m3.025 10.824 7.594 1.11.092-1.348-7.423-1.443-.263 1.68zm1.007-3.854 6.72 3.173.616-1.36-6.72-3.173zm1.904-3.343 5.712 4.816.952-1.133-5.712-4.817zm3.64-3.514-1.176.907 4.424 6.007 1.176-.907zm-6.776 14.054h7.84v-1.7h-7.84z" fill="#f48024"/></g></svg>

<svg width="14" height="17" xmlns="http://www.w3.org/2000/svg"><g fill-rule="nonzero" fill="none"><path fill="#BCBBBB" d="M11.76 15.3v-4.533h1.68V17H0v-6.233h1.68V15.3z"/><path d="M3.025 10.824l7.594 1.11.092-1.348-7.423-1.443-.263 1.68zM4.032 6.97l6.72 3.173.616-1.36-6.72-3.173-.616 1.36zm1.904-3.343l5.712 4.816.952-1.133-5.712-4.817-.952 1.134zM9.576.113L8.4 1.02l4.424 6.007L14 6.12 9.576.113zM2.8 14.167h7.84v-1.7H2.8v1.7z" fill="#F48024"/></g></svg>
